F[ERK1
CUT[BRAUNS MAEDCHEN AN DEM LADEN LAG]
REG[Europa, Mitteleuropa, Luxemburg]
KEY[E0116A 08  G 4/4]
MEL[-5_  1_.-71_23  1_.-71_
    4_  3_231_3_  2__0_
    23  4_.32342  3_.12_0_
    3_21-7-6-5-6  -7_4_3212  3__. //] >>
FCT[erzaehlendes Volks - Lied, Schalk -, Schelmen - Lied, Liebe
    Ballade ?]
